apps/web/public/images/iconographie/profil-conseiller-numerique.svg

<svg width="56" height="56" viewBox="0 0 56 56" fill="none" xmlns="http://www.w3.org/2000/svg">
    <rect y="-0.000488281" width="56" height="56" rx="8" fill="#F5F5FE"/>
    <path d="M27.8968 12.9995L19 18.1597V28.4444L27.4342 42.9995H28.395L36.8292 28.4444V18.1597L27.8968 12.9995Z" fill="#E1000F"/>
    <path d="M30.459 21.8251H33.8398V19.8678L27.8967 16.4514L21.9893 19.8678V26.7361L27.8967 30.1525L33.8398 26.7361V24.7788H30.459V21.8251Z" fill="white"/>
    <path d="M30.4591 24.7789V21.8252L27.8968 20.3661L25.3701 21.8252V24.7789L27.8968 26.238L30.4591 24.7789Z" fill="#000091"/>
</svg>

<svg width="56" height="56" viewBox="0 0 56 56" fill="none" xmlns="http://www.w3.org/2000/svg"><rect width="56" height="56" rx="8" fill="#F5F5FE"/><path d="M27.897 13 19 18.16v10.284L27.434 43h.961l8.434-14.555V18.16z" fill="#E1000F"/><path d="M30.459 21.825h3.38v-1.957l-5.942-3.417-5.908 3.417v6.868l5.908 3.416 5.943-3.416V24.78h-3.381z" fill="#fff"/><path d="M30.46 24.779v-2.954l-2.563-1.459-2.527 1.46v2.953l2.527 1.459z" fill="#000091"/></svg>
